src/icons/svg/workbench copy.svg

<?xml version="1.0" encoding="UTF-8"?>
<svg width="40px" height="35px" viewBox="0 0 40 35" version="1.1" xmlns="http://www.w3.org/2000/svg"
>
    <path d="M37.2399379,2.75850141 C37.238751,2.75850141 37.2413793,25.6821524 37.2413793,25.6821524 C37.2413793,25.6844703 2.76006207,25.6838291 2.76006207,25.6838291 C2.76124898,25.6838291 2.7586207,2.76017793 2.7586207,2.76017793 C2.7586207,2.75786066 37.2399379,2.75850141 37.2399379,2.75850141 Z M0,25.6821524 C0,27.2033607 1.23644137,28.4423303 2.76006207,28.4423303 L37.2399379,28.4423303 C38.76662,28.4423303 40,27.2070786 40,25.6821524 L40,2.76017793 C40,1.23897031 38.7635586,-3.55271368e-16 37.2399379,-3.55271368e-16 L2.76006207,-3.55271368e-16 C1.23338,-3.55271368e-16 0,1.23525172 0,2.76017793 L0,25.6821524 Z M32.8418552,34.8953627 C33.6036269,34.8953627 34.2211655,34.2778241 34.2211655,33.5160524 L34.2211655,33.4518427 C34.2211655,32.690071 33.6036269,32.0725324 32.8418552,32.0725324 L7.15814484,32.0725324 C6.39637309,32.0725324 5.77883449,32.690071 5.77883449,33.4518427 L5.77883449,33.5160524 C5.77883449,34.2778241 6.39637309,34.8953627 7.15814484,34.8953627 C7.91991723,34.8953627 32.8418552,34.8953627 32.8418552,34.8953627 Z M18.5885848,32.1046372 L21.3472055,32.1046372 L21.3472055,28.4423303 L18.6527945,28.4423303 L18.5885848,32.1046372 Z"
          id="形状"></path>
</svg>

<svg width="40" height="35" xmlns="http://www.w3.org/2000/svg"><path d="M37.24 2.759l.001 22.923c0 .002-34.48.002-34.48.002L2.758 2.76c0-.002 34.48-.001 34.48-.001zM0 25.682a2.763 2.763 0 0 0 2.76 2.76h34.48a2.758 2.758 0 0 0 2.76-2.76V2.76A2.763 2.763 0 0 0 37.24 0H2.76A2.758 2.758 0 0 0 0 2.76v22.922zm32.842 9.213a1.38 1.38 0 0 0 1.38-1.379v-.064a1.38 1.38 0 0 0-1.38-1.38H7.158a1.38 1.38 0 0 0-1.38 1.38v.064c0 .762.618 1.38 1.38 1.38h25.684zm-14.253-2.79h2.758v-3.663h-2.694l-.064 3.663z"/></svg>
